!!!COM: Hugo Wolf
!!!CNT: Deutscher
!!!TXO: Deutsche 
!!!OTL: Auf ein altes Bild
!!!ONM: No. 23
!!!ODT: 1888/
!!!LYR: Moericke
!!!ENC: Brian Bice
!!!YOR: 65 Songs for voice and piano, International Music Company, 1960
!!NB: Vocal melody and text only encoded.
**kern	**silbe
*clefG2	*
*k[f#c#g#]	*
*M4/4	*
=4	=4
2r	.
4r	.
{4cc#	{In
=5	=5
4b	gru2-
4cc#	-ner
4dd	Land-
4cc#	-schaft
=6	=6
8b	Som-
8cc#	|
4dd	-mer-
4cc#}	-flor,}
8r	.
{8cc#	{bei
=7	=7
8a	ku2h-
8g#	|
4f#	-lem
4cc#	Was-
8b	-ser,
8a	|
=8	=8
4g#	Schlif
4f#	und
[4cc#	Rohr,
8cc#]}	|}
8r	.
=9	=9
{8dd	{schau,
4dd	wie
8cc#	das
(8cc#	Kna2b-
4b)	|
8cc#	-lein
=10	=10
(8ee	Su2n-
4dd)	|
8cc#	-de-
4b}	-los}
{[4dd#	{frei
=11	=11
8dd#]	|
4cc#	spie-
8b	-let
8a	auf
8g#	|
4f#	der
=12	=12
4a#	Jung-
8.g#	-frau
16f#	|
2f#}	Schoss!}
=14	=14
2r	.
4r	.
8r	.
{8dd#	{Und
=15	=15
4.ddn	dort
8cc#	im
4b	Wal-
4a	-de
=16	=16
(8g#	won-
4cc#)	|
8b#	-ne-
[4ee#	-sam,
8ee#]}	|}
8r	.
=18	=18
2r	.
4r	.
{4ee	{ach,
=19	=19
8r	.
4dd	gru2-
8cc#	-net
4.b	schon
8f#	des
=20	=20
4.a	Kreu-
8g#	-zes
2g#;}	Stamm!}
*-	*-
